src/providers/mollie/provider-mollie-white-640x360.svg

<?xml version="1.0" encoding="UTF-8" standalone="no"?>
<svg
   height="360"
   viewBox="0 0 640 360"
   width="640"
   version="1.1"
   id="svg1021"
   sodipodi:docname="provider-mollie-white-640x360.svg"
   inkscape:version="1.1.2 (b8e25be8, 2022-02-05)"
   xmlns:inkscape="http://www.inkscape.org/namespaces/inkscape"
   xmlns:sodipodi="http://sodipodi.sourceforge.net/DTD/sodipodi-0.dtd"
   xmlns="http://www.w3.org/2000/svg"
   xmlns:svg="http://www.w3.org/2000/svg">
  <defs
     id="defs1025" />
  <sodipodi:namedview
     id="namedview1023"
     pagecolor="#ffffff"
     bordercolor="#666666"
     borderopacity="1.0"
     inkscape:pageshadow="2"
     inkscape:pageopacity="0.0"
     inkscape:pagecheckerboard="0"
     showgrid="false"
     inkscape:zoom="0.36875"
     inkscape:cx="320"
     inkscape:cy="178.98305"
     inkscape:window-width="2125"
     inkscape:window-height="1268"
     inkscape:window-x="2520"
     inkscape:window-y="253"
     inkscape:window-maximized="0"
     inkscape:current-layer="svg1021" />
  <g
     fill-rule="nonzero"
     transform="translate(80 110)"
     id="g1019"
     style="fill:#ffffff">
    <path
       d="m202.711157 121.154208c-15.095724 0-27.333472-12.236472-27.333472-27.330623 0-15.0941509 12.237748-27.3306225 27.333472-27.3306225 15.095725 0 27.333473 12.2364716 27.333473 27.3306225 0 15.094151-12.237748 27.330623-27.333473 27.330623zm0-73.4939012c-25.496558 0-46.168091 20.6693777-46.168091 46.1632782 0 25.493901 20.671533 46.163278 46.168091 46.163278 25.496559 0 46.168093-20.669377 46.168093-46.163278 0-25.4939005-20.671534-46.1632782-46.168093-46.1632782zm173.180396-33.6914356c0 7.186237-5.826569 13.012199-13.013555 13.012199s-13.013556-5.825962-13.013556-13.012199c0-7.18623714 5.82657-13.01219897 13.013556-13.01219897s13.013555 5.82596183 13.013555 13.01219897m-235.245047 74.0327055v50.0128873h-19.019812v-50.6825151c-.074577-11.389177-9.423315-20.7284327-20.836704-20.8285266-11.6636498-.1025961-21.2070912 9.7341259-21.2070912 21.3975603v50.1134814h-19.0198123v-50.5473882c-.0745777-11.4447297-9.3822731-20.7919925-20.7891553-20.8985925-11.6901773-.1096028-21.2546403 9.7456367-21.2546403 21.4350955v50.0108852h-18.5192909v-50.6825151c0-21.9806066 17.8085505-39.7622769 39.7964546-39.7622769 12.1876956 0 23.0930553 5.5201751 30.4006675 14.148264.0100104.0100093-.0100104.0100093 0 0 7.5378518-8.9203629 19.0173099-14.5286206 31.6845039-14.1667814 21.682587.6200813 38.76488 18.7615889 38.76488 40.4504221"
       id="path1009"
       style="fill:#ffffff" />
    <path
       d="m265.276 138.085h19.02v-134.852h-19.02z"
       id="path1011"
       style="fill:#ffffff" />
    <path
       d="m309.322 138.085h19.02v-134.852h-19.02z"
       id="path1013"
       style="fill:#ffffff" />
    <path
       d="m353.368 138.013h19.02v-88.083h-19.02z"
       id="path1015"
       style="fill:#ffffff" />
    <path
       d="m435.519515 64.4716676c12.643171 0 23.214182 8.868314 25.836915 20.7194242h-51.673828c2.622733-11.8511102 13.193745-20.7194242 25.836913-20.7194242m.357373-16.9318738c-25.029572.3243041-45.242627 20.5687833-45.537434 45.6032528-.301815 25.5669694 20.570928 46.7027844 46.142064 46.7193194 16.900605.010991 31.682002-9.059012 39.734891-22.595202.011512-.019019.004004-.044542-.016518-.054552l-15.406048-7.583609c-4.880083 8.077572-13.743316 13.477634-23.868862 13.477634-13.694266 0-25.080126-9.879261-27.422565-22.901469h70.497434v-8.568033c0-24.2652486-19.857185-44.4121362-44.122962-44.0973412"
       id="path1017"
       style="fill:#ffffff" />
  </g>
</svg>

<?xml version="1.0" encoding="UTF-8" standalone="no"?>
<svg
   height="360"
   viewBox="0 0 640 360"
   width="640"
   version="1.1"
   id="svg1021"
   sodipodi:docname="provider-mollie-white-640x360.svg"
   inkscape:version="1.4.2 (ebf0e940, 2025-05-08)"
   xmlns:inkscape="http://www.inkscape.org/namespaces/inkscape"
   xmlns:sodipodi="http://sodipodi.sourceforge.net/DTD/sodipodi-0.dtd"
   xmlns="http://www.w3.org/2000/svg"
   xmlns:svg="http://www.w3.org/2000/svg"
   xmlns:rdf="http://www.w3.org/1999/02/22-rdf-syntax-ns#"
   xmlns:cc="http://creativecommons.org/ns#"
   xmlns:dc="http://purl.org/dc/elements/1.1/">
  <title
     id="title1">Mollie logo white</title>
  <defs
     id="defs1025" />
  <sodipodi:namedview
     id="namedview1023"
     pagecolor="#ffffff"
     bordercolor="#666666"
     borderopacity="1.0"
     inkscape:pageshadow="2"
     inkscape:pageopacity="0.0"
     inkscape:pagecheckerboard="true"
     showgrid="false"
     inkscape:zoom="1"
     inkscape:cx="318.5"
     inkscape:cy="178.5"
     inkscape:window-width="1792"
     inkscape:window-height="998"
     inkscape:window-x="0"
     inkscape:window-y="25"
     inkscape:window-maximized="0"
     inkscape:current-layer="svg1021"
     inkscape:showpageshadow="0"
     inkscape:deskcolor="#d1d1d1" />
  <g
     fill-rule="nonzero"
     transform="matrix(1.066667,0,0,1.066667,64,104.83009)"
     id="g1019"
     style="fill:#ffffff">
    <path
       d="m 202.71116,121.15421 c -15.09573,0 -27.33348,-12.23647 -27.33348,-27.330625 0,-15.094151 12.23775,-27.330623 27.33348,-27.330623 15.09572,0 27.33347,12.236472 27.33347,27.330623 0,15.094155 -12.23775,27.330625 -27.33347,27.330625 z m 0,-73.493903 c -25.49656,0 -46.16809,20.669377 -46.16809,46.163278 0,25.493905 20.67153,46.163275 46.16809,46.163275 25.49656,0 46.16809,-20.66937 46.16809,-46.163275 0,-25.4939 -20.67153,-46.163278 -46.16809,-46.163278 z M 375.89155,13.968871 c 0,7.186237 -5.82657,13.012199 -13.01355,13.012199 -7.18699,0 -13.01356,-5.825962 -13.01356,-13.012199 0,-7.1862369 5.82657,-13.01219877 13.01356,-13.01219877 7.18698,0 13.01355,5.82596187 13.01355,13.01219877 M 140.64651,88.001577 V 138.01446 H 121.62669 V 87.331949 C 121.55212,75.942772 112.20338,66.603516 100.78999,66.503422 89.12634,66.400826 79.582899,76.237548 79.582899,87.900983 V 138.01446 H 60.563086 V 87.467076 C 60.488509,76.022346 51.180813,66.675083 39.773931,66.568483 28.083754,66.458881 18.519291,76.31412 18.519291,88.003579 V 138.01446 H 0 V 87.331949 C 0,65.351342 17.80855,47.569672 39.796455,47.569672 c 12.187695,0 23.093055,5.520175 30.400667,14.148264 0.01001,0.01001 -0.01001,0.01001 0,0 7.537852,-8.920363 19.01731,-14.528621 31.684508,-14.166781 21.68258,0.620081 38.76488,18.761589 38.76488,40.450422"
       id="path1009"
       style="fill:#ffffff" />
    <path
       d="m 265.276,138.085 h 19.02 V 3.233 h -19.02 z"
       id="path1011"
       style="fill:#ffffff" />
    <path
       d="m 309.322,138.085 h 19.02 V 3.233 h -19.02 z"
       id="path1013"
       style="fill:#ffffff" />
    <path
       d="m 353.368,138.013 h 19.02 V 49.93 h -19.02 z"
       id="path1015"
       style="fill:#ffffff" />
    <path
       d="m 435.51951,64.471668 c 12.64318,0 23.21419,8.868314 25.83692,20.719424 H 409.6826 c 2.62273,-11.85111 13.19375,-20.719424 25.83691,-20.719424 m 0.35738,-16.931874 c -25.02957,0.324304 -45.24263,20.568783 -45.53744,45.603253 -0.30181,25.566973 20.57093,46.702783 46.14207,46.719323 16.9006,0.011 31.682,-9.05902 39.73489,-22.59521 0.0115,-0.019 0.004,-0.0445 -0.0165,-0.0546 L 460.79384,109.629 c -4.88008,8.07758 -13.74331,13.47764 -23.86886,13.47764 -13.69427,0 -25.08013,-9.87926 -27.42256,-22.90147 h 70.49743 v -8.568035 c 0,-24.265249 -19.85719,-44.412136 -44.12296,-44.097341"
       id="path1017"
       style="fill:#ffffff" />
  </g>
  <metadata
     id="metadata1">
    <rdf:RDF>
      <cc:Work
         rdf:about="">
        <dc:title>Mollie logo white</dc:title>
      </cc:Work>
    </rdf:RDF>
  </metadata>
</svg>
